!!!OTL: 679c. Sichlein rauschen.
!!!ARE: Europa, Mitteleuropa, Deutschland, Westfalen; France, Elsass
!!!SCT: E0679E
!!!TXL: @@DE
!!!YEM: Copyright 1995, estate of Helmut Schaffrath.
**kern	**text
*ICvox	*
*M2/4	*
*k[b-]	*
*F:	*
!LO:TX:a:t=Weſtfäl. und Elſaſſer Melodie.	!
{8c	Es
=1	=1
8f	dun-
8c	-keit
8f	in
8g	dem
=2	=2
(4.a	Wal-
8b-/	.
=3	=3
8.ccL	.
16b-J)	.
8a}	-de,
{8cc	laßt
=4	=4
8ff	uns
8cc	nach
8b-	Hau-
8a	-ſe
=5	=5
4g	gehn!
8r}	.
{8cc	Wir
=6	=6
8dd	wolln
8cc	das
8dd	Korn
8ee	ab-
=7	=7
(8ffL	-ſchnei-
16ee	.
16ddJ)	.
8cc}	-den,
{8b-/	wenn
=8	=8
8a	wir
8a	den
16ccL	Som-
16b-J	.
8g	-mer
=9	=9
4f	ſehn.
8r}	.
==	==
!!!AGN: Liebes - Lied, Leid, Klage
!!!ONB: ESAC (Essen Associative Code) Database: ERK2
!!!AMT: simple duple
!!!AIN: vox
!!!EED: Helmut Schaffrath
!!!EEV: 1.0
!!!GTL: Liebeslieder [Neuere (aus dem 18. bis 19. Jahrh.) - Liebesleid] 678-740
!!!URL-scan: https://rosdok.uni-rostock.de/mcrviewer/recordIdentifier/rosdok_ppn745177662/iview2/phys_0480.iview2?x=192.47699748739979&y=338.6502015592996&scale=0.7029437510502773&rotation=0&layout=singlePageLayout
!!!ENC: Anna Maria Matuszewska
!!!EEV: 2024/12/12
*-	*-
